X:1
T:Aerion, LMD
T:Aerion, LMD
T:Carmina Sacra, by Lowell Mason, 1844
T:Public Domain Courtesy of the Cyber Hymnal™
C:Carmina Sacra, by Lowell Mason, 1844
Z:Public Domain
Z:Courtesy of the Cyber Hymnal™
%%score 1 2 3 4
L:1/8
Q:1/4=95
M:3/4
K:D
V:1 treble 
V:2 treble 
V:3 treble-8 
V:4 bass 
V:1
 d2 | A>A A2 d2 | d>d d2 d2 | d>A AA AA | A4 B2 | A>B c2 ^G2 | A>^G Ae df | ed c2 B2 | %8
 !fermata!c4 A2 | A>A AA AA | A3 d dd | dA A2 A2 | A3 B BB | B3 B BB | A4 c2 | d4 c2 | d4 A2 | %17
 B2 A2 A2 | !fermata!A4 |] %19
V:2
 F2 | F>F F2 F2 | G>G G2 D2 | D>E DF ED | (D2 C2) E2 | E>E E2 E2 | E>E EE FB | AF E2 E2 | %8
 !fermata!E4 D2 | D>D DD DD | D3 F FF | AF F2 E2 | F3 F FF | ^G3 G GG | A4 A2 | A4 G2 | F4 A2 | %17
 G2 F2 E2 | !fermata!F4 |] %19
V:3
 A2 | d>d d2 A2 | B>B B2 A2 | B>c dA GF | (F2 E2) E2 | A>^G A2 B2 | c>B cA Bd | cB A2 ^G2 | %8
 !fermata!A4 F2 | F>F FF FF | F3 A AA | Ad d2 c2 | d3 d dd | B3 e ee | c4 e2 | f4 e2 | d4 d2 | %17
 e2 d2 c2 | !fermata!d4 |] %19
V:4
 D,2 | D,>D, D,2 D,2 | G,>G, G,2 F,2 | G,>G, F,D, C,D, | A,,4 (E,D,) | C,>B,, A,,2 E,2 | %6
 A,>E, A,C, D,B,, | C,D, E,2 E,2 | !fermata!A,,4 D,2 | D,>D, D,D, D,D, | D,3 D, D,D, | %11
 F,D, A,2 A,,2 | D,3 B,, B,,B,, | E,3 E, E,E, | A,4 A,2 | D4 A,2 | B,4 F,2 | G,2 A,2 A,,2 | D,4 |] %19

